X: 1
T: The Soldier's Joy
O: Joshua Campbell's Collection 1778
R: reel
B: RSCDS 2-6
N: Suitable Pipe Tunes "The East Neuk of Fife" "Portee men".
Z: 1997 by John Chambers <jc:trillian.mit.edu>
M: C|
L: 1/8
K: D
FG 
| "D"AFDF AFDF | "D"A2d2 d2cB | "D"AFDF AFDF | "A7"G2E2 E2FG | 
|"D"AFDF AFDF | "D"A2d2 d2de | "D"fafd "A7"egec | "D"d2f2 d2 :|
 de |: "D"f2fd fagf | "A7"e2ec egfe | "D"f2fd fagf | "A7"edcB A2g2 |
| "D"f2fd fagf | "A7"e2ec egfe | "D"fafd "A7"egec | "D"d2f2 d2 :|
